!!!!SEGMENT: Jac3001-A_tout_jamais--La_Couronne.krn
!!!id: Jac3001
!!!AGN: Chanson
!!!SCT: Bernstein (1984)
!!!voices: 3
!!!COM: Jacotin Frontin?
!!!OTL: A tout jamais
**kern	**kern	**kern
*part3	*part2	*part1
*staff3	*staff2	*staff1
*I"Bassus	*I"Tenor	*I"Superius
*I'B	*I'T	*I'S
*clefF4	*clefGv2	*clefGv2
*k[b-]	*k[b-]	*k[b-]
*F:	*F:	*F:
*M2/1	*M2/1	*M2/1
*met(C|)	*met(C|)	*met(C|)
=1	=1	=1
2.D	0r	0r
4E	.	.
4F	.	.
4D	.	.
2G	.	.
=2	=2	=2
2F	1r	0r
2G	.	.
4GG	2D	.
4AA	.	.
4BB-y	2E	.
4C	.	.
=3	=3	=3
2D	4F	0r
.	4D	.
2BB-y	1G	.
1AA	.	.
.	2F#i	.
=4	=4	=4
2GG	4G	2.D
.	4A	.
2D	4B-y	.
.	4c	4E
2BB-y	2d	4F
.	.	4D
2GG	2B-y	[2G
=5	=5	=5
1D	1A	2G]
.	.	2F#i
1r	[1G	1G
=6	=6	=6
1E	1G]	2r
.	.	1B-y
2D	1r	.
2D	.	2A
=7	=7	=7
2C	1r	2A
2C	.	2G
2.BB-y	1B-y	2G
.	.	[2F
4C	.	.
=8	=8	=8
4D	2A	4F]
4E	.	4G
4F	2A	4A
4D	.	4B-y
4E	2G	2c
4D	.	.
4C	[2F	[2B-y
4BB-y	.	.
=9	=9	=9
1C	2F]	2B-]
.	2E	2A
1BB-y	2.F	1B-y
.	4G	.
=10	=10	=10
1F	4A	2c
.	4B-y	.
.	1c	2A
1r	.	1d
.	[2B-y	.
=11	=11	=11
1F	2B-]	1c
.	2A	.
2G	1B-y	2r
2G	.	[2B-y
=12	=12	=12
2G	0r	2B-]
2.A	.	2c
.	.	2c
4G	.	.
4F	.	[2d
4E	.	.
=13	=13	=13
2D	1r	4d]
.	.	4c
2.G	.	4B-y
.	.	4A
.	1B-y	1G
4F	.	.
4E	.	.
4D	.	.
=14	=14	=14
1C	1.c	2G
.	.	2.A
1r	.	.
.	.	4G
.	[2d	4F
.	.	4E
=15	=15	=15
1BB-y	4d]	2D
.	4c	.
.	4B-y	2.G
.	4A	.
1C	2G	.
.	.	4F
.	[2c	4E
.	.	4D
=16	=16	=16
2C	4c]	1A
.	4B-y	.
2.D	4A	.
.	4G	.
.	2F	2.d
4C	.	.
4BB-y	[2G	.
4AA	.	4c
=17	=17	=17
2GG	4G]	2B-y
.	4F	.
2AA	1F	2A
2BB-y	.	1G
2C	2E	.
=18	=18	=18
1D	2.F	2r
.	.	2D
.	4G	.
2r	2A	2F
2BB-y	[2B-y	2G
=19	=19	=19
1C	2B-]	1E
.	2A	.
4BB-y	[1d	2.F
4C	.	.
4D	.	.
4E	.	4G
=20	=20	=20
2F	2d]	2A
2G	4c	1B-y
.	4B-y	.
1F	1c	.
.	.	2A
=21	=21	=21
1BB-y	0B-y	1B-y
1r	.	[1f
=22	=22	=22
1D	2r	1f]
.	1B-y	.
2D	.	1f
2D	2A	.
=23	=23	=23
2C	2A	2e
2.D	2D	2d
.	2.A	2f
4C	.	.
2D	.	4e
.	8GL	4d
.	8FJ	.
=24	=24	=24
2AA	2E	2c
2BB-y	2D	1d
1AA	1E	.
.	.	2c#i
=25	=25	=25
2r	2D	[0d
4GG	2B-y	.
4AA	.	.
4BB-y	2B-y	.
4C	.	.
4D	2B-y	.
4E	.	.
=26	=26	=26
2F	2A	0d_
1G	1B-y	.
4F	4A	.
4E	4G	.
=27	=27	=27
2D	2F	0d]
2GG	1G	.
1D	.	.
.	2F	.
=28	=28	=28
1E	1G	2r
.	.	1B-y
2E	1r	.
2D	.	2B-y
=29	=29	=29
2C	0r	2A
2.E	.	2G
.	.	2B-y
4D	.	.
4C	.	4A
4BB-y	.	4G
=30	=30	=30
4AA	0r	2F
4GG	.	.
2BB-y	.	1G
1AA	.	.
.	.	2F#i
=31	=31	=31
0GG	1B-y	0G
.	2B-y	.
.	2B-y	.
=32	=32	=32
1D	2A	1F
.	1B-y	.
1E	.	1G
.	4A	.
.	4G	.
=33	=33	=33
0D	2F	0A
.	1G	.
.	2F#i	.
=34	=34	=34
1GG	2G	0G
.	1B-y	.
1r	.	.
.	4A	.
.	4G	.
=35	=35	=35
0D	0F	2r
.	.	1A
.	.	2B-y
=36	=36	=36
1D	0r	2A
.	.	1B-y
1E	.	.
.	.	4A
.	.	4G
=37	=37	=37
0D	2r	1F
.	1A	.
.	.	1f
.	2B-y	.
=38	=38	=38
1D	2A	2.f
.	1B-y	.
.	.	4e
2.BB-y	.	2d
.	4A	4c
4C	4G	4B-y
=39	=39	=39
[0D	1F	1A
.	1f	2B-y
.	.	2A
=40	=40	=40
0D]	2.f	2.d
.	4e	4c
.	2.d	2B-y
.	.	2A
.	8cL	.
.	8B-yJ	.
=41	=41	=41
0D;	0A;	0d;
=42	=42	=42
1F	0r	1r
2G	.	1B-y
2G	.	.
=43	=43	=43
2A	1r	2c
2A	.	2c
1D	2r	2d
.	[2B-y	2d
=44	=44	=44
1E	2B-]	1G
.	2c	.
1F	2c	1r
.	2d	.
=45	=45	=45
4G	2d	0r
4F	.	.
4E	1G	.
4D	.	.
1C	.	.
.	[2c	.
=46	=46	=46
2.F	4c]	0r
.	4B-y	.
.	4A	.
4E	4G	.
4D	2F	.
4C	.	.
2E-X	[2G	.
=47	=47	=47
2BB-y	2G]	1B-y
2D	1F	.
1C	.	2c
.	2E	2c
=48	=48	=48
2.BB-y	2.F	2d
.	.	2D
8AAL	4G	.
8BB-yJ	.	.
2AA	2A	2C
4GG	[2B-y	[2D
4AA	.	.
=49	=49	=49
4BB-y	2B-]	4D]
4C	.	4E
2D	2A	2F
4BB-y	[1d	4D
4C	.	4E
4D	.	4F
4E	.	4G
=50	=50	=50
2F	2d]	2A
2G	4c	1B-y
.	4B-y	.
1F	1c	.
.	.	2A
=51	=51	=51
1BB-y	0B-y	1B-y
2r	.	1r
2B-y	.	.
=52	=52	=52
2B-y	0r	1f
2B-y	.	.
1A	.	2f
.	.	2f
=53	=53	=53
2G	0r	2e
2.B-y	.	2d
.	.	2f
4A	.	.
4G	.	4e
4F	.	4d
=54	=54	=54
4E	0r	2c
4D	.	.
2F	.	1d
1E	.	.
.	.	2c#i
=55	=55	=55
2D	1B-y	[0d
1G	.	.
.	2B-y	.
2G	2B-y	.
=56	=56	=56
2D	2A	0d_
1G	2G	.
.	1A	.
2F	.	.
=57	=57	=57
0B-y	2G	0d_
.	4r	.
.	4G	.
.	2G	.
.	2G	.
=58	=58	=58
2A	2D	0d]
2G	1G	.
1A	.	.
.	2F#i	.
=59	=59	=59
2G	1G	2r
4GG	.	1B-y
4FF	.	.
4GG	1r	.
4AA	.	.
4BB-y	.	2B-y
4C	.	.
=60	=60	=60
2D	2r	2A
2GG	2D	2G
1D	1F	1A
=61	=61	=61
1GG	2E	[0Gl
.	2D	.
1C	1E	.
=62	=62	=62
00GGl	00Dl	00G]
==	==	==
*-	*-	*-
!!!system-decoration: [*]
!!!RDF**kern: i = editorial accidental
!!!RDF**kern: l = terminal long
!!!ENC: Benjamin Ory
!!!END: 2023/11/6
!!!EED: Benjamin Ory
!!!EEV: 2023/11/06
!!!YEC: Copyright 2023 Benjamin Ory, All Rights Reserved
!!!ONB: Translated from MusicXML on 2023/11/06
